assets/No smoking/Flat/no_smoking_flat.svg

<svg width="32" height="32" viewBox="0 0 32 32" fill="none" xmlns="http://www.w3.org/2000/svg">
<path d="M27.875 15.9375C27.875 22.5304 22.5304 27.875 15.9375 27.875C9.3446 27.875 4 22.5304 4 15.9375C4 9.3446 9.3446 4 15.9375 4C22.5304 4 27.875 9.3446 27.875 15.9375Z" fill="white"/>
<path d="M22.6032 9.81732L22.2611 10.8728C22.0942 11.3876 22.143 11.948 22.3965 12.4262L22.8007 13.1889C22.9537 13.4774 23.0336 13.799 23.0336 14.1255V15.2594C23.0336 15.4987 23.3374 15.6013 23.4825 15.4109L24.1847 14.4894C24.7111 13.7986 24.7314 12.8469 24.2351 12.1342L23.55 11.1505C23.4126 10.9533 23.3119 10.7328 23.2527 10.4998L23.0833 9.83288C23.0216 9.58989 22.6805 9.57884 22.6032 9.81732Z" fill="black"/>
<path d="M7 17C7 16.4477 7.44772 16 8 16H21.75C21.8881 16 22 16.112 22 16.25V18.75C22 18.8881 21.8881 19 21.75 19H8C7.44772 19 7 18.5523 7 18V17Z" fill="black"/>
<path d="M23 16.25C23 16.112 23.1119 16 23.25 16H23.75C23.8881 16 24 16.112 24 16.25V18.75C24 18.8881 23.8881 19 23.75 19H23.25C23.1119 19 23 18.8881 23 18.75V16.25Z" fill="black"/>
<path d="M16 30C23.732 30 30 23.732 30 16C30 8.26801 23.732 2 16 2C8.26801 2 2 8.26801 2 16C2 23.732 8.26801 30 16 30ZM22.6453 24.7666C20.7991 26.1682 18.4967 27 16 27C9.92487 27 5 22.0751 5 16C5 13.5033 5.8318 11.2009 7.23339 9.35471L22.6453 24.7666ZM24.7666 22.6453L9.35471 7.23339C11.2009 5.8318 13.5033 5 16 5C22.0751 5 27 9.92487 27 16C27 18.4967 26.1682 20.7991 24.7666 22.6453Z" fill="#F8312F"/>
</svg>

<svg xmlns="http://www.w3.org/2000/svg" width="32" height="32" fill="none"><path fill="#fff" d="M27.875 15.938c0 6.592-5.345 11.937-11.938 11.937C9.346 27.875 4 22.53 4 15.937 4 9.346 9.345 4 15.938 4c6.592 0 11.937 5.345 11.937 11.938Z"/><path fill="#000" d="m22.603 9.817-.342 1.056a2 2 0 0 0 .136 1.553l.404.763a2 2 0 0 1 .233.937v1.133c0 .24.303.342.449.152l.702-.922a2 2 0 0 0 .05-2.355l-.685-.984a2 2 0 0 1-.297-.65l-.17-.667c-.061-.243-.402-.254-.48-.016ZM7 17a1 1 0 0 1 1-1h13.75a.25.25 0 0 1 .25.25v2.5a.25.25 0 0 1-.25.25H8a1 1 0 0 1-1-1v-1ZM23 16.25a.25.25 0 0 1 .25-.25h.5a.25.25 0 0 1 .25.25v2.5a.25.25 0 0 1-.25.25h-.5a.25.25 0 0 1-.25-.25v-2.5Z"/><path fill="#F8312F" d="M16 30c7.732 0 14-6.268 14-14S23.732 2 16 2 2 8.268 2 16s6.268 14 14 14Zm6.645-5.233A10.952 10.952 0 0 1 16 27C9.925 27 5 22.075 5 16c0-2.497.832-4.8 2.233-6.645l15.412 15.412Zm2.122-2.122L9.355 7.233A10.952 10.952 0 0 1 16 5c6.075 0 11 4.925 11 11 0 2.497-.832 4.8-2.233 6.645Z"/></svg>
